Adwaita++-Dark/actions/22/document-edit-decrypt-verify.svg

<svg height="22" viewBox="0 0 22 22" width="22" xmlns="http://www.w3.org/2000/svg">
  <path d="m2 1.9902344v2h2v-2zm5 0v2h2v-2zm5 0v2h2v-2zm-8 3v2h2v-2zm6 0v2h2v-2zm-8 3v6.0097656c0 1 1 1 1 1h10s1 0 1-1v-5.9902344h-2v4.9863284h-8v-5.0058596zm8 0-3 2.9999996-1-.9999996-1 .9999996 1 1 1 1 4-3.9999996z" fill="#e6ddff" transform="translate(3 3)"/>
</svg>

<svg xmlns="http://www.w3.org/2000/svg" width="22" height="22" viewBox="0 0 22 22">
 <defs>
  <style id="current-color-scheme" type="text/css">
   .ColorScheme-Text { color:#E6DDFF; } .ColorScheme-Highlight { color:#4285f4; }
  </style>
 </defs>
 <path style="fill:currentColor" class="ColorScheme-Text" d="M 2 1.9902344 L 2 3.9902344 L 4 3.9902344 L 4 1.9902344 L 2 1.9902344 z M 7 1.9902344 L 7 3.9902344 L 9 3.9902344 L 9 1.9902344 L 7 1.9902344 z M 12 1.9902344 L 12 3.9902344 L 14 3.9902344 L 14 1.9902344 L 12 1.9902344 z M 4 4.9902344 L 4 6.9902344 L 6 6.9902344 L 6 4.9902344 L 4 4.9902344 z M 10 4.9902344 L 10 6.9902344 L 12 6.9902344 L 12 4.9902344 L 10 4.9902344 z M 2 7.9902344 L 2 14 C 2 15 3 15 3 15 L 13 15 C 13 15 14 15 14 14 L 14 8.0097656 L 12 8.0097656 L 12 12.996094 L 4 12.996094 L 4 7.9902344 L 2 7.9902344 z M 10 7.9902344 L 7 10.990234 L 6 9.9902344 L 5 10.990234 L 6 11.990234 L 7 12.990234 L 11 8.9902344 L 10 7.9902344 z" transform="translate(3 3)"/>
</svg>
